public/avatar/hat/158.svg

<svg xmlns:xlink="http://www.w3.org/1999/xlink" height="92.9" width="100.7" xmlns="http://www.w3.org/2000/svg"><use height="40.6" transform="translate(22.7 31.85)" width="31.05" xlink:href="#a"/><defs><g id="a" fill-rule="evenodd"><path d="m-2.8-4 2-.15 2.5.1h.25l.75.2.25.25q.15.5-.25 3.5 4.8.75 6.15 4.5l.05.05 1.45.25q.4 0 .45.3l-.05.5-.3.35q2.9 3.2 4.65 10.35v.1l-.3.5-1.6.45q-.15 1.2-1.15 2.4L10.1 21.9l-3.75.5q-.4 0-.5-.4l-.8-3.45q-.05-.25.2-.45 3.4-2.65 3.5-3.6v-.15l-.9-3Q6.9 8.8 6.5 8.4l-.4-.1-4.6 1 .7 7.6v.05l-.1.35-.35.15-3.9.15-.45-.5v-.05l.2-7.7Q-5.05 9-7.2 8.2l-.7.15q-1.6 3.2-1.6 6.2v.05q.6 1.4 4 3.3.3.15.3.45l-.05.15-1.45 3.95q-.15.35-.5.25l-4.25-.8q-2-3.4-2.4-5.05l-1.9-.5-.2-.4v-.05q.35-2.7 2.3-5.95 1.35-2.2 2.85-3.7l-.4-.3q-.3-.2-.2-.45l.35-.4 1.9-.65Q-7.85 1-3.55.05L-3.7-1l-.05-2.45.05-.15.05-.1.85-.3m.35 4.9.35.05.65-.5.7-.5.55-.05.9.55.8.45.1-.4.1-.7.15-1.2.1-1.3L1.9-3l-.4-.1-.7-.1v.05L-2.8-3l-.05.3.05.85.05.9h.05l.05.85.1.7.1.3M-6.9 3.6l3.25-1.7.4-.2-.05-.1-.15-.8q-3 .8-4.25 3.1l.8-.3m4.4 4.75 1.05.15 1 .1.6-.05H.4l1.05-.1L3.8 8l2.85-.85 1.7-.85.75-.45.8-.55L8.3 5l-1.45-.5L3.7 3.05l-1.3-.7Q1.65 1.7.5 1.3L-.4.8q-1.75 1.4-4.5 2.7l-2.35.95-.85.35-1.75.6-.45.1.15.1.8.5 1.5.75 1 .4.15.05.4.15-.1.05 1.7.55 1.6.3.6.05v-.05M-9 21.25l1.6.4 1.1-3.05-.9-.55-2.05-1.5-1.1-1.35-.1-.25q-.2-3.5 1.7-7.1l.25-.2q-.35-.15-.65-.35l-.9-.5q-1.4 1.4-2.65 3.3-2 3.05-2.35 5.55l.45.1 1.3.2h.2q.35 1.95 2.2 4.75l1.9.55M.1 9.5l-.55.05-.95-.05-.2 7.1H.05l1.1-.1-.7-7.05-.35.05m5.7-6.3q1.2.55 2.15.9Q6.5 1.25 2.6.6l-.1.6-.05.25Q4.3 2.5 5.8 3.2" fill="#351e02" transform="translate(15.95 17.9)"/><path d="m-3.65 1.9-.15-.7-.15.15q-1-.2-2.5 1.45l-.45.8-.8.3Q-6.45 1.6-3.45.8l.15.8.05.1-.4.2m-5.5 5.4-.4 1.05-.9 2.1-.85 2.8q-.4 1.75.45 2.75l3.15 2.9-1.6 2.2.3.15-1.9-.55q-1.85-2.8-2.2-4.75h-.2l.45-1.3q-1.05 1.15-2 .1l-.2.9q.35-2.5 2.35-5.55 1.25-1.9 2.65-3.3l.9.5m9.2 9.3H-1.6l.2-7.1.95.05.55-.05-.05 7.1M-10.3 8.2v-.1l-.5-.5-2.05 2.75-1.35 3q.7-.25 2.15-2.8l1.75-2.35m-1.55 6.5-.8 1.85q.35 2.45 2.25 3.6.5-1.15-.2-2.15-.9-1.3-1.25-3.3M2.5 1.2l.1-.6q3.9.65 5.35 3.5Q7 3.75 5.8 3.2l-.3-.3q-1.45-1.3-3-1.7m8.75 17.5-1.4 2.05-3.15.55 1.05-.1q.45-1.9.55-4.55Q9.9 15 9.7 14.4q.15-.4-2.55-6.5l.2-.1 1.55-.75q2.95 4.4 4.2 9.25l-.75.05 1.75-.3q-1.45-5.85-3.8-9l-.55-.55-.85.55.85-.55.55.55q2.35 3.15 3.8 9l-1.75.3.75-.05q-1.25-4.85-4.2-9.25l-1.55.75 1.05 2.45 1.3 3.95q1.2 1.4 1.55 4.5l.15-.15.55-.85.4-1.35-.4 1.35-.55.85-.15.15q-.35-3.1-1.55-4.5l-1.3-3.95L7.35 7.8l-.2.1q2.7 6.1 2.55 6.5.2.6-1.4 2.25-.1 2.65-.55 4.55l-1.05.1-.6-2.65.9-.75.35-.35.95-.95v.05-.05l-.95.95-.35.35-.9.75.6 2.65 3.15-.55 1.4-2.05" fill="#f8c606" transform="translate(15.95 17.9)"/><path d="m-9 21.25-.3-.15 1.6-2.2-3.15-2.9q-.85-1-.45-2.75l.85-2.8.9-2.1.4-1.05q.3.2.65.35l-.25.2q-1.9 3.6-1.7 7.1l.1.25 1.1 1.35 2.05 1.5.9.55-1.1 3.05-1.6-.4m-6.05-5.6.2-.9q.95 1.05 2-.1l-.45 1.3-1.3-.2 1.3.2-1.3-.2-.45-.1M.1 9.5l.35-.05.7 7.05-1.1.1.05-7.1m2.4-8.3q1.55.4 3 1.7l.3.3q-1.5-.7-3.35-1.75l.05-.25" fill="#f87006" transform="translate(15.95 17.9)"/><path d="m-6.9 3.6.45-.8q1.5-1.65 2.5-1.45l.15-.15.15.7-3.25 1.7m-3.4 4.6-1.75 2.35q-1.45 2.55-2.15 2.8l1.35-3 2.05-2.75.5.5v.1m-1.55 6.5q.35 2 1.25 3.3.7 1 .2 2.15-1.9-1.15-2.25-3.6l.8-1.85" fill="#fff" transform="translate(15.95 17.9)"/><path d="m-2.8-4-1.6-11.55q.05-1.25 3.35-1.4 3.3-.15 3.7 1l-.8-.65-1.3 9.7-.25-7.35-1 8.4-.5-3.75-1.7 5 .1.6-.1-.6 1.7-5 .5 3.75 1-8.4.25 7.35 1.3-9.7.8.65q-.4-1.15-3.7-1-3.3.15-3.35 1.4L-2.8-4l-.85.3-.05.1-.05.15L-5.4-15.7v-.1q.15-1.8 4.05-2.05 4.6-.25 5 1.7.3 2.05-.95 12.3l-.75-.2H1.7l-2.5-.1-2 .15m5.45-11.95q.3 2-.95 11.9 1.25-9.9.95-11.9" transform="translate(15.95 17.9)"/><path d="M-.6-13q.35-1.45 1.5-3.5-4.95-.3-4.85 1.65Q-3.6-9.5-2.7-6.5l-.15-8.75 1.25 3.5v-3.75l1 2.5" fill="#004dd6" transform="translate(15.95 17.9)"/><path d="M.8-3.15v-.05l.7.1.4.1.05.3-.1 1.3L1.7-.2l-.1.7-.1.4L.7.45-.2-.1l-.55.05-.7.5-.65.5-.35-.05-.1-.4q1.2-.3 2.3-.8L.6-.7l.2-1.85v-.6m-3.5 2.2h-.05l-.05-.9 1.9.2-1.8.7m.2 9.3v.05l-.6-.05-1.6-.3-1.7-.55.1-.05.25-.1.8-.45q2.25-1.4 3.4-3l-.6 4-.05.45M.55 3.9l.95.75 2 1.5.6.45-.55-.8L.4 2l3.3 1.9 4.6 2.35-1.85.85-2.9.9-2.1.4-.4.05.25-.7.05-.35q.4-1.9-.8-3.5" fill="#cf7838" transform="translate(15.95 17.9)"/><path d="m-2.45.9-.1-.3-.1-.7-.05-.85 1.8-.7-1.9-.2-.05-.85.05-.3 3.6-.15v.6L.6-.7l-.85.4q-1.1.5-2.3.8l.1.4M-6.3 7.45l-.4-.15-.15-.05-1-.4-1.5-.75-.8-.5-.15-.1.45-.1 1.75-.6.85-.35 2.35-.95Q-2.15 2.2-.4.8l.9.5q1.15.4 1.9 1.05l1.3.7L6.85 4.5 8.3 5l1.6.3-.8.55-.75.45-1.7.85L3.8 8l-2.35.45-1.05.1H.15l-.6.05-1-.1-1.05-.15.05-.45.6-4q-1.15 1.6-3.4 3l-.8.45-.25.1M.55 3.9q1.2 1.6.8 3.5l-.05.35-.25.7.4-.05 2.1-.4 2.9-.9 1.85-.85L3.7 3.9.4 2l3.15 3.8.55.8-.6-.45-2-1.5-.95-.75" fill="#f8f9a8" transform="translate(15.95 17.9)"/><path d="m-.6-13-1-2.5v3.75l-1.25-3.5.15 8.75q-.9-3-1.25-8.35-.1-1.95 4.85-1.65Q-.25-14.45-.6-13" fill="#71eeff" transform="translate(15.95 17.9)"/></g></defs></svg>

<?xml version="1.0" encoding="UTF-8" standalone="no"?>
<svg xmlns:xlink="http://www.w3.org/1999/xlink" height="92.9px" width="100.7px" xmlns="http://www.w3.org/2000/svg">
  <g transform="matrix(1.0, 0.0, 0.0, 1.0, 38.65, 49.75)">
    <use height="40.6" transform="matrix(1.0, 0.0, 0.0, 1.0, -15.95, -17.9)" width="31.05" xlink:href="#shape0"/>
  </g>
  <defs>
    <g id="shape0" transform="matrix(1.0, 0.0, 0.0, 1.0, 15.95, 17.9)">
      <path d="M-2.8 -4.0 L-0.8 -4.15 1.7 -4.05 1.95 -4.05 2.7 -3.85 2.95 -3.6 Q3.1 -3.1 2.7 -0.1 7.5 0.65 8.85 4.4 L8.9 4.45 10.35 4.7 Q10.75 4.7 10.8 5.0 L10.75 5.5 10.45 5.85 Q13.35 9.05 15.1 16.2 L15.1 16.3 14.8 16.8 13.2 17.25 Q13.05 18.45 12.05 19.65 L10.1 21.9 6.35 22.4 Q5.95 22.4 5.85 22.0 L5.05 18.55 Q5.0 18.3 5.25 18.1 8.65 15.45 8.75 14.5 L8.75 14.35 7.85 11.35 Q6.9 8.8 6.5 8.4 L6.1 8.3 1.5 9.3 2.2 16.9 2.2 16.95 2.1 17.3 1.75 17.45 -2.15 17.6 -2.6 17.1 -2.6 17.05 -2.4 9.35 Q-5.05 9.0 -7.2 8.2 L-7.9 8.35 Q-9.5 11.55 -9.5 14.55 L-9.5 14.6 Q-8.9 16.0 -5.5 17.9 -5.2 18.05 -5.2 18.35 L-5.25 18.5 -6.7 22.45 Q-6.85 22.8 -7.2 22.7 L-11.45 21.9 Q-13.45 18.5 -13.85 16.85 L-15.75 16.35 -15.95 15.95 -15.95 15.9 Q-15.6 13.2 -13.65 9.95 -12.3 7.75 -10.8 6.25 L-11.2 5.95 Q-11.5 5.75 -11.4 5.5 L-11.05 5.1 -9.15 4.45 Q-7.85 1.0 -3.55 0.05 L-3.7 -1.0 -3.75 -3.45 -3.7 -3.6 -3.65 -3.7 -2.8 -4.0 M-2.45 0.9 L-2.1 0.95 -1.45 0.45 -0.75 -0.05 -0.2 -0.1 0.7 0.45 1.5 0.9 1.6 0.5 1.7 -0.2 1.85 -1.4 1.95 -2.7 1.9 -3.0 1.5 -3.1 0.8 -3.2 0.8 -3.15 -2.8 -3.0 -2.85 -2.7 -2.8 -1.85 -2.75 -0.95 -2.7 -0.95 -2.65 -0.1 -2.55 0.6 -2.45 0.9 M-6.9 3.6 L-3.65 1.9 -3.25 1.7 -3.3 1.6 -3.45 0.8 Q-6.45 1.6 -7.7 3.9 L-6.9 3.6 M-2.5 8.35 L-1.45 8.5 -0.45 8.6 0.15 8.55 0.4 8.55 1.45 8.45 3.8 8.0 6.65 7.15 8.35 6.3 9.1 5.85 9.9 5.3 8.3 5.0 6.85 4.5 3.7 3.05 2.4 2.35 Q1.65 1.7 0.5 1.3 L-0.4 0.8 Q-2.15 2.2 -4.9 3.5 L-7.25 4.45 -8.1 4.8 -9.85 5.4 -10.3 5.5 -10.15 5.6 -9.35 6.1 -7.85 6.85 -6.85 7.25 -6.7 7.3 -6.3 7.45 -6.4 7.5 -4.7 8.05 -3.1 8.35 -2.5 8.4 -2.5 8.35 M-9.0 21.25 L-7.4 21.65 -6.3 18.6 -7.2 18.05 -9.25 16.55 -10.35 15.2 -10.45 14.95 Q-10.65 11.45 -8.75 7.85 L-8.5 7.65 Q-8.85 7.5 -9.15 7.3 L-10.05 6.8 Q-11.45 8.2 -12.7 10.1 -14.7 13.15 -15.05 15.65 L-14.6 15.75 -13.3 15.95 -13.1 15.95 Q-12.75 17.9 -10.9 20.7 L-9.0 21.25 M0.1 9.5 L-0.45 9.55 -1.4 9.5 -1.6 16.6 0.05 16.6 1.15 16.5 0.45 9.45 0.1 9.5 M5.8 3.2 Q7.0 3.75 7.95 4.1 6.5 1.25 2.6 0.6 L2.5 1.2 2.45 1.45 Q4.3 2.5 5.8 3.2" fill="#351e02" fill-rule="evenodd" stroke="none"/>
      <path d="M-3.65 1.9 L-3.8 1.2 -3.95 1.35 Q-4.95 1.15 -6.45 2.8 L-6.9 3.6 -7.7 3.9 Q-6.45 1.6 -3.45 0.8 L-3.3 1.6 -3.25 1.7 -3.65 1.9 M-9.15 7.3 L-9.55 8.35 -10.45 10.45 -11.3 13.25 Q-11.7 15.0 -10.85 16.0 L-7.7 18.9 -9.3 21.1 -9.0 21.25 -10.9 20.7 Q-12.75 17.9 -13.1 15.95 L-13.3 15.95 -12.85 14.65 Q-13.9 15.8 -14.85 14.75 L-15.05 15.65 Q-14.7 13.15 -12.7 10.1 -11.45 8.2 -10.05 6.8 L-9.15 7.3 M0.05 16.6 L-1.6 16.6 -1.4 9.5 -0.45 9.55 0.1 9.5 0.05 16.6 M-10.3 8.2 L-10.3 8.1 -10.8 7.6 -12.85 10.35 -14.2 13.35 Q-13.5 13.1 -12.05 10.55 L-10.3 8.2 M-11.85 14.7 L-12.65 16.55 Q-12.3 19.0 -10.4 20.15 -9.9 19.0 -10.6 18.0 -11.5 16.7 -11.85 14.7 M2.5 1.2 L2.6 0.6 Q6.5 1.25 7.95 4.1 7.0 3.75 5.8 3.2 L5.5 2.9 Q4.05 1.6 2.5 1.2 M11.25 18.7 L9.85 20.75 6.7 21.3 7.75 21.2 Q8.2 19.3 8.3 16.65 9.9 15.0 9.7 14.4 9.85 14.0 7.15 7.9 L7.35 7.8 8.9 7.05 Q11.85 11.45 13.1 16.3 L12.35 16.35 14.1 16.05 Q12.65 10.2 10.3 7.05 L9.75 6.5 8.9 7.05 9.75 6.5 10.3 7.05 Q12.65 10.2 14.1 16.05 L12.35 16.35 13.1 16.3 Q11.85 11.45 8.9 7.05 L7.35 7.8 8.4 10.25 9.7 14.2 Q10.9 15.6 11.25 18.7 L11.4 18.55 11.95 17.7 12.35 16.35 11.95 17.7 11.4 18.55 11.25 18.7 Q10.9 15.6 9.7 14.2 L8.4 10.25 7.35 7.8 7.15 7.9 Q9.85 14.0 9.7 14.4 9.9 15.0 8.3 16.65 8.2 19.3 7.75 21.2 L6.7 21.3 6.1 18.65 7.0 17.9 7.35 17.55 8.3 16.6 8.3 16.65 8.3 16.6 7.35 17.55 7.0 17.9 6.1 18.65 6.7 21.3 9.85 20.75 11.25 18.7" fill="#f8c606" fill-rule="evenodd" stroke="none"/>
      <path d="M-9.0 21.25 L-9.3 21.1 -7.7 18.9 -10.85 16.0 Q-11.7 15.0 -11.3 13.25 L-10.45 10.45 -9.55 8.35 -9.15 7.3 Q-8.85 7.5 -8.5 7.65 L-8.75 7.85 Q-10.65 11.45 -10.45 14.95 L-10.35 15.2 -9.25 16.55 -7.2 18.05 -6.3 18.6 -7.4 21.65 -9.0 21.25 M-15.05 15.65 L-14.85 14.75 Q-13.9 15.8 -12.85 14.65 L-13.3 15.95 -14.6 15.75 -13.3 15.95 -14.6 15.75 -15.05 15.65 M0.1 9.5 L0.45 9.45 1.15 16.5 0.05 16.6 0.1 9.5 M2.5 1.2 Q4.05 1.6 5.5 2.9 L5.8 3.2 Q4.3 2.5 2.45 1.45 L2.5 1.2" fill="#f87006" fill-rule="evenodd" stroke="none"/>
      <path d="M-6.9 3.6 L-6.45 2.8 Q-4.95 1.15 -3.95 1.35 L-3.8 1.2 -3.65 1.9 -6.9 3.6 M-10.3 8.2 L-12.05 10.55 Q-13.5 13.1 -14.2 13.35 L-12.85 10.35 -10.8 7.6 -10.3 8.1 -10.3 8.2 M-11.85 14.7 Q-11.5 16.7 -10.6 18.0 -9.9 19.0 -10.4 20.15 -12.3 19.0 -12.65 16.55 L-11.85 14.7" fill="#ffffff" fill-rule="evenodd" stroke="none"/>
      <path d="M-2.8 -4.0 L-4.4 -15.55 Q-4.35 -16.8 -1.05 -16.95 2.25 -17.1 2.65 -15.95 L1.85 -16.6 0.55 -6.9 0.3 -14.25 -0.7 -5.85 -1.2 -9.6 -2.9 -4.6 -2.8 -4.0 -2.9 -4.6 -1.2 -9.6 -0.7 -5.85 0.3 -14.25 0.55 -6.9 1.85 -16.6 2.65 -15.95 Q2.25 -17.1 -1.05 -16.95 -4.35 -16.8 -4.4 -15.55 L-2.8 -4.0 -3.65 -3.7 -3.7 -3.6 -3.75 -3.45 -5.4 -15.7 -5.4 -15.8 Q-5.25 -17.6 -1.35 -17.85 3.25 -18.1 3.65 -16.15 3.95 -14.1 2.7 -3.85 L1.95 -4.05 1.7 -4.05 -0.8 -4.15 -2.8 -4.0 M2.65 -15.95 Q2.95 -13.95 1.7 -4.05 2.95 -13.95 2.65 -15.95" fill="#000000" fill-rule="evenodd" stroke="none"/>
      <path d="M-0.6 -13.0 Q-0.25 -14.45 0.9 -16.5 -4.05 -16.8 -3.95 -14.85 -3.6 -9.5 -2.7 -6.5 L-2.85 -15.25 -1.6 -11.75 -1.6 -15.5 -0.6 -13.0" fill="#004dd6" fill-rule="evenodd" stroke="none"/>
      <path d="M0.8 -3.15 L0.8 -3.2 1.5 -3.1 1.9 -3.0 1.95 -2.7 1.85 -1.4 1.7 -0.2 1.6 0.5 1.5 0.9 0.7 0.45 -0.2 -0.1 -0.75 -0.05 -1.45 0.45 -2.1 0.95 -2.45 0.9 -2.55 0.5 Q-1.35 0.2 -0.25 -0.3 L0.6 -0.7 0.8 -2.55 0.8 -3.15 M-2.7 -0.95 L-2.75 -0.95 -2.8 -1.85 -0.9 -1.65 -2.7 -0.95 M-2.5 8.35 L-2.5 8.4 -3.1 8.35 -4.7 8.05 -6.4 7.5 -6.3 7.45 -6.05 7.35 -5.25 6.9 Q-3.0 5.5 -1.85 3.9 L-2.45 7.9 -2.5 8.35 M0.55 3.9 L1.5 4.65 3.5 6.15 4.1 6.6 3.55 5.8 0.4 2.0 3.7 3.9 8.3 6.25 6.45 7.1 3.55 8.0 1.45 8.4 1.05 8.45 1.3 7.75 1.35 7.4 Q1.75 5.5 0.55 3.9" fill="#cf7838" fill-rule="evenodd" stroke="none"/>
      <path d="M-2.45 0.9 L-2.55 0.6 -2.65 -0.1 -2.7 -0.95 -0.9 -1.65 -2.8 -1.85 -2.85 -2.7 -2.8 -3.0 0.8 -3.15 0.8 -2.55 0.6 -0.7 -0.25 -0.3 Q-1.35 0.2 -2.55 0.5 L-2.45 0.9 M-6.3 7.45 L-6.7 7.3 -6.85 7.25 -7.85 6.85 -9.35 6.1 -10.15 5.6 -10.3 5.5 -9.85 5.4 -8.1 4.8 -7.25 4.45 -4.9 3.5 Q-2.15 2.2 -0.4 0.8 L0.5 1.3 Q1.65 1.7 2.4 2.35 L3.7 3.05 6.85 4.5 8.3 5.0 9.9 5.3 9.1 5.85 8.35 6.3 6.65 7.15 3.8 8.0 1.45 8.45 0.4 8.55 0.15 8.55 -0.45 8.6 -1.45 8.5 -2.5 8.35 -2.45 7.9 -1.85 3.9 Q-3.0 5.5 -5.25 6.9 L-6.05 7.35 -6.3 7.45 M0.55 3.9 Q1.75 5.5 1.35 7.4 L1.3 7.75 1.05 8.45 1.45 8.4 3.55 8.0 6.45 7.1 8.3 6.25 3.7 3.9 0.4 2.0 3.55 5.8 4.1 6.6 3.5 6.15 1.5 4.65 0.55 3.9" fill="#f8f9a8" fill-rule="evenodd" stroke="none"/>
      <path d="M-0.6 -13.0 L-1.6 -15.5 -1.6 -11.75 -2.85 -15.25 -2.7 -6.5 Q-3.6 -9.5 -3.95 -14.85 -4.05 -16.8 0.9 -16.5 -0.25 -14.45 -0.6 -13.0" fill="#71eeff" fill-rule="evenodd" stroke="none"/>
    </g>
  </defs>
</svg>
